Suru++-Ubuntu/actions/16/format-text-clear-formatting.svg

<svg xmlns="http://www.w3.org/2000/svg" width="16" height="16" version="1.1">
 <path fill="#808080" d="m5 2v1h1l-2 9h-1v1h3v-1h-0.9116117l0.9116117-4h3v1h1v-3h-1v1h-2.7790291l1-4h4.7790291v1h1v-2z"/>
 <path fill="#808080" fill-rule="evenoddd" d="m 9,10 0,1 c 0,0.277 0.112219,0.526281 0.292969,0.707031 L 10.085938,12.5 9.292969,13.292969 C 9.112219,13.473719 9,13.723 9,14 l 0,1 1,0 c 0.277,0 0.526281,-0.112219 0.707031,-0.292969 L 11.5,13.914062 12.292969,14.707031 C 12.473719,14.887781 12.723,15 13,15 l 1,0 0,-1 c 0,-0.277 -0.112219,-0.526281 -0.292969,-0.707031 L 12.914062,12.5 13.707031,11.707031 C 13.887781,11.526281 14,11.277 14,11 l 0,-1 -1,0 c -0.277,0 -0.526281,0.112219 -0.707031,0.292969 L 11.5,11.085938 10.707031,10.292969 C 10.526281,10.112219 10.277,10 10,10 Z"/>
</svg>

<svg xmlns="http://www.w3.org/2000/svg" width="16" height="16" version="1.1">
 <path d="M 5,2 5,3 6,3 4,12 3,12 3,13 6,13 6,12 5.0883883,12 6,8 9,8 9,9 10,9 10,6 9,6 9,7 6.2209709,7 l 1,-4 L 12,3 l 0,1 1,0 0,-2 z" style="fill:#4d4d4d"/>
 <path d="m 9,10 0,1 c 0,0.277 0.112219,0.526281 0.292969,0.707031 L 10.085938,12.5 9.292969,13.292969 C 9.112219,13.473719 9,13.723 9,14 l 0,1 1,0 c 0.277,0 0.526281,-0.112219 0.707031,-0.292969 L 11.5,13.914062 12.292969,14.707031 C 12.473719,14.887781 12.723,15 13,15 l 1,0 0,-1 c 0,-0.277 -0.112219,-0.526281 -0.292969,-0.707031 L 12.914062,12.5 13.707031,11.707031 C 13.887781,11.526281 14,11.277 14,11 l 0,-1 -1,0 c -0.277,0 -0.526281,0.112219 -0.707031,0.292969 L 11.5,11.085938 10.707031,10.292969 C 10.526281,10.112219 10.277,10 10,10 Z" style="fill:#bebebf;fill-rule:evenodd"/>
</svg>
